Obsidian-SemiLight/actions/24s/format-line-spacing-normal.svg

<svg xmlns="http://www.w3.org/2000/svg" viewBox="0 0 24 24">
  <defs id="defs3051">
    <style type="text/css" id="current-color-scheme">
      .ColorScheme-Text {
        color:#4d4d4d;
      }
      </style>
  </defs>
 <path style="fill:currentColor;fill-opacity:1;stroke:none" 
     d="M 8 8 L 8 9 L 5 9 L 4 9 L 4 11 L 4 13 L 4 14.900391 L 5 14.900391 L 8 14.900391 L 8 15.900391 L 20 15.900391 L 20 12.900391 L 8 12.900391 L 8 13.900391 L 5 13.900391 L 5 13 L 6 13 L 6 11 L 5 11 L 5 10 L 8 10 L 8 11 L 20 11 L 20 8 L 8 8 z "
     class="ColorScheme-Text"
     />
</svg>

<svg viewBox="0 0 24 24" xmlns="http://www.w3.org/2000/svg"><path d="m8 8v1h-3-1v2 2 1.900391h1 3v1h12v-3h-12v1h-3v-.900391h1v-2h-1v-1h3v1h12v-3z" fill="#4d4d4d"/></svg>
